!!!COM: Distler, Hugo
!!!CDT: 1908-1942
!!!OPR@@DE: Der Jahrkreis
!!!OPR@EN: The Year Cycle
!!!OTL@@DE: Steht auf, ihr lieben Kinderlein
!!!OTL@EN: Arise, O dearest children mine
!!!OPS: 5
!!!ONM: 1
**kern	**text	**kern	**text	**kern	**text
*part3	*part3	*part2	*part2	*part1	*part1
*staff3	*staff3	*staff2	*staff2	*staff1	*staff1
*Ibass	*	*Ialto	*	*Isoprn	*
*clefF4	*	*clefG2	*	*clefG2	*
*k[]	*	*k[]	*	*k[]	*
*MM120	*	*MM120	*	*MM120	*
*M4/4	*	*M4/4	*	*M4/4	*
4D	Steht	4r	.	4r	.
=1	=1	=1	=1	=1	=1
4D	auf,	4r	.	2r	.
4D	ihr	4A	Steht	.	.
4F	lie-	4A	auf,	4r	.
4D	ben	4A	ihr	4d	Steht
=2	=2	=2	=2	=2	=2
(2G	Kin-	(4.c	lie-	4d	auf,
.	.	.	.	4d	ihr
.	.	8B)	.	.	.
4F.	.	4A	ben	4f	lie-
.	.	[4d	Kin-	4d	ben
8E	.	.	.	.	.
=3	=3	=3	=3	=3	=3
4D)	.	4d]	.	4f	Kin-
4C	der-	4e	der-	4g	der-
[2D	lein!	4f,	lein,	4a,	lein,
.	.	([4d	Kin-	([4f	Kin-
=4	=4	=4	=4	=4	=4
1D_	.	8dL]	.	8fL]	.
.	.	8eJ	.	8g	.
.	.	2g)	.	8a	.
.	.	.	.	8gJ	.
.	.	.	.	4b)	.
.	.	4g	der-	4b	der-
=5	=5	=5	=5	=5	=5
2D]	.	4f#,	lein!	2a	lein!
.	.	4f#	Der	.	.
2r	.	4f#	Mor-	4r	.
.	.	4f#	gen-	4a	Der
=6	=6	=6	=6	=6	=6
2r	.	4a	stern	4a	Mor-
.	.	4f#	mit	4a	gen-
4r	.	(4e	hel-	4cc	stern
4A	Der	8dL	.	4a	mit
.	.	8c	.	.	.
=7	=7	=7	=7	=7	=7
4A	Mor-	8d	.	(4a	hel-
.	.	8eJ	.	.	.
4A	gen-	2fn	.	8gL	.
.	.	.	.	8fJ	.
4c	stern	.	.	[2g	.
4A	mit	4e	.	.	.
=8	=8	=8	=8	=8	=8
4B-	hel-	4d)	.	4g])	.
4c	lem	4e	lem	4a	lem
[2A	Schein	4c,	Schein,	4f,	Schein,
.	.	([4c	hel-	([4cc	hel-
=9	=9	=9	=9	=9	=9
1A_	.	8cL]	.	8ccL]	.
.	.	8dJ	.	8b-J	.
.	.	4f	.	4a	.
.	.	8fL	.	8aL	.
.	.	8d	.	8b-	.
.	.	8f	.	8cc	.
.	.	8gJ	.	8ddJ	.
=10	=10	=10	=10	=10	=10
*M3/4	*	*M3/4	*	*M3/4	*
2.A_	.	2a)	.	4.cc	.
.	.	.	.	8b-)	.
.	.	4f	-lem	4a	lem
=11	=11	=11	=11	=11	=11
*M4/4	*	*M4/4	*	*M4/4	*
2A]	.	4c	Schein	2f	Schein
.	.	4c	laesst	.	.
4r	.	4c	sich	2r	.
4G	laesst	4e	frei	.	.
=12	=12	=12	=12	=12	=12
4G	sich	(4.d	se-	4r	.
4B-	frei	.	.	4f	laesst
.	.	8cL	.	.	.
2A	se-	8d	.	4f	sich
.	.	8eJ	.	.	.
.	.	4f)	.	4a	frei
=13	=13	=13	=13	=13	=13
4c	hen	4f	hen	4g	se-
2A	wie	(4.f	wie	4f	hen
.	.	.	.	4g	wie
.	.	8e)	.	.	.
4c	ein	4d	ein	4g	ein
=14	=14	=14	=14	=14	=14
*M9/4	*	*M9/4	*	*M9/4	*
[1F	Held	2c,	Held,	4a,	Held,
.	.	.	.	8g	wie
.	.	.	.	8g	ein
.	.	8d	wie	4a,	Held,
.	.	8f	ein	.	.
.	.	4c,	Held,	8g	wie
.	.	.	.	8g	ein
2F_	.	8d	wie	4a,	Held,
.	.	8f	ein	.	.
.	.	4c,	Held,	8g	wie
.	.	.	.	8g	ein
2.F_	.	2d	wie	(4.a	Held,
.	.	.	.	8b-L	.
.	.	4f	ein	8cc	.
.	.	.	.	8ddJ	.
=15	=15	=15	=15	=15	=15
*M4/4	*	*M4/4	*	*M4/4	*
2.F]	.	4f,	Held	2.cc),	.
.	.	4f	und	.	.
.	.	2f	leuch-	.	.
4r	.	.	.	4a	und
=16	=16	=16	=16	=16	=16
4r	.	2f	tet	4a	leuch-
4c	und	.	.	4a	tet
4c	leuch-	4e	durch	4a	durch
4c	tet	4d	die	4g	die
=17	=17	=17	=17	=17	=17
*M8/4	*	*M8/4	*	*M8/4	*
4A	durch	(4.c	gan-	(4.f	gan-
4c	die	.	.	.	.
.	.	8B-	.	8e	.
(2F	gan-	4.A	.	4d	.
.	.	.	.	4c	.
.	.	8B-	.	.	.
4G	.	4c	.	8fL	.
.	.	.	.	8e	.
2A)	.	2d)	.	8f	.
.	.	.	.	8gJ	.
.	.	.	.	4e)	.
4A	ze	4c#	ze	4e	ze
=18	=18	=18	=18	=18	=18
*M5/4	*	*M5/4	*	*M5/4	*
[2D	Welt.	4d,	Welt,	4f#,	Welt,
.	.	4f#	die	4a	die
2.D_	.	(4.g	gan-	(4.b	gan-
.	.	8f#)	.	8a)	.
.	.	4e	ze	4g	ze
=19	=19	=19	=19	=19	=19
*M4/4	*	*M4/4	*	*M4/4	*
2.D]	.	2.f#	Welt.	2.a	Welt.
==	==	==	==	==	==
*-	*-	*-	*-	*-	*-
!!!YOR: Bärenreiter-Ausgabe 676
!!!YOY: 1933
!!!EFL: 45/52
!!!URL-scan: https://imslp.eu/files/imglnks/euimg/7/7d/IMSLP834545-PMLP518834-5-jahrkreis-EA--original-paper-600dpi.pdf#page=83
!!!URL-imslp:https://imslp.org/wiki/Der_Jahrkreis,_Op.5_(Distler,_Hugo)#IMSLP834545
!!!system-decoration: [(s1,s2,s3)]
!!!ENC: Lucas Hofmann
!!!END: 2023/11/02
